X: 41433
T: Two Birds In The Bush, The
R: reel
M: 4/4
K: Amixolydian
(3EFG|A2 BA eAAA|(3Bcd AB G2 AG|EA (3AAA BAGA|(3BAB de gedB|
A2 (3ABA eAAA|(3Bcd AB G2 AG|EA (3AAA BAGA|(3BAB dB A2:|
dc|(3BAG Bd g2 ga|(3bag (3agf gedc|(3BAG Bd g2 ga|(3bag (3agf g2 fa|
bagb agef|gedB AE (3EDE|GABd dBeB|dBAB G2:|

